X: 22
T: Hewlett
I: Hewlett	W-11	D	waltz
C: W-11
C: O'Carolan
H: From Paul Milde 12/9/82
M: 3/4
Z: Transcribed to abc by Mary Lou Knack
R: waltz
K: D
AF| "D"D2 DE FG| "A"AB c2 A2| "Bm"d2 f2 fg| "G"fe d3 B|     "D"A2 F2 F2| "G"G3 B AG| "D"AF "G"D2 "A"D2|1 "D"D4:|2 "D"D6|]
|:"D"A2 F2 AB| A2 F2 AB| A2 d2 d2| "Bm"dc BA GF| "Em"G2 E2 GA| G2 E2 EF| "A"GF GB AG| "D"AF D3 E|
"D" FE F2 G2| "A"AB c2 A2| "Bm"fe fg ag| "G"fe d3 B|"D"A2 F2 F2| "G"G3 B AG| "D"AF "G"D2 "A"D2| "D"D6:|
%%text 9/1/98 For use only by Roaring Jelly members

